!!! OTL: Berkowitz26
!!! Chapter: 1
!!! Section: I
!!! Page: 9
!!! Mode: 
!!! Encoder: DJB
**kern
*staff1
*I"Piano
=1-
*clefG2
*k[f#]
*G:
*M2/4
8g/L
8g/J
8g/L
8a/J
=2
8g/L
8g/J
8g/L
8d/J
=3
8g/L
8g/J
8g/L
8a/J
=4
4b\
4g/
=5
8a/L
8a/J
8a/L
8b/J
=6
8a/L
8a/J
8a/L
8g/J
=7
8f#/L
8d/J
8e/L
8f#/J
=8
8g/L
8b/J
4g/
==
*-
